X:1
T:O Can Ye Sew Cushions
M:3/4
L:1/8
S:The Scots Musical Museum, vol. V (1796), no. 444
B:Four volume edition of 1853; rpt. Folklore Associates, 1962
K:G
"Slow"G2|A3Bd2|B2G2G2|A3Bd2|{c2}B4G2|
w:O can ye sew Cush-ions, and can ye sew Sheets and
A2(Bc) (dc)|B A(G2A2)|B3c{B}~A2|G4||
w:can ye_ sing_ bal-lu-loo_ when the bairn greets.
G2|A3Bg2|B2G2G2|A3Bg2|{f}e4e2|
w:And hee and baw bir-die and hee and baw lamb and
d2c2B2|{B}A2G2A2|B3c{B}~A2|HG4||
w:hee and baw bir-die my bon-nie wee lamb.
M:C
"Lively"B2G2D2G2|A B A B {B}A2G2|B3GD2G2|
w:Hee O wee O what wou'd I do wi' you black's the life that
A2A BG4|B2G2D2G2|A B A B A2G2|
w:I lead wi' you mon-ny O you lit-tle for to gie you
B2G2D2G2|"Slow"B6G2|A2A BG4|]
w:hee O wee O what would I do wi' you.